polaris-icons/icons/new-icons/FlagMajor.svg

<svg width="20" height="20" viewBox="0 0 20 20" fill="none" xmlns="http://www.w3.org/2000/svg">
<path fill-rule="evenodd" clip-rule="evenodd" d="M4.96388 4.0194L5.20116 3.89285C6.94872 2.96082 9.08901 3.19576 10.5928 4.4847C11.2177 5.02035 12.0988 5.13948 12.8435 4.78901L13.6867 4.39222C14.9954 3.77636 16.5 4.73121 16.5 6.17756V11.2219C16.5 12.1401 15.9697 12.9756 15.139 13.3666L13.7764 14.0078C12.3183 14.694 10.5932 14.4607 9.3697 13.412C8.48396 12.6528 7.22329 12.5144 6.19395 13.0634L5 13.7001V15.75C5 16.1642 4.66421 16.5 4.25 16.5C3.83579 16.5 3.5 16.1642 3.5 15.75V4.25C3.5 3.83579 3.83579 3.5 4.25 3.5C4.58376 3.5 4.8666 3.71801 4.96388 4.0194ZM5.90704 5.21638C7.1094 4.57512 8.58196 4.73677 9.61658 5.62359C10.6899 6.54356 12.2031 6.74816 13.4822 6.14624L14.3254 5.74944C14.6392 5.60176 15 5.83073 15 6.17756V11.2219C15 11.559 14.8053 11.8658 14.5003 12.0093L13.1377 12.6506C12.2139 13.0853 11.121 12.9375 10.3459 12.2731C8.991 11.1118 7.06261 10.9001 5.48807 11.7398L5 12.0001V5.88518C5 5.77128 5.06277 5.66666 5.16327 5.61306L5.90704 5.21638Z" fill="#4A4A4A"/>
</svg>

<svg viewBox="0 0 20 20" xmlns="http://www.w3.org/2000/svg"><path fill-rule="evenodd" d="m4.964 4.02.237-.127a4.808 4.808 0 0 1 5.392.592 2.09 2.09 0 0 0 2.25.304l.844-.397a1.973 1.973 0 0 1 2.813 1.786v5.044a2.37 2.37 0 0 1-1.361 2.145l-1.363.64a4.093 4.093 0 0 1-4.406-.595 2.832 2.832 0 0 0-3.176-.349l-1.194.637v2.05a.75.75 0 0 1-1.5 0v-11.5a.75.75 0 0 1 1.464-.23Zm.943 1.196a3.308 3.308 0 0 1 3.71.408 3.59 3.59 0 0 0 3.865.522l.843-.397a.473.473 0 0 1 .675.429v5.044a.87.87 0 0 1-.5.787l-1.362.642a2.593 2.593 0 0 1-2.792-.378 4.332 4.332 0 0 0-4.858-.533l-.488.26v-6.115c0-.114.063-.218.163-.272l.744-.397Z" fill="#5C5F62"/></svg>
